data/icons/svg/tool-i-beam.svg

<?xml version="1.0" encoding="UTF-8" standalone="no"?>
<!-- Created with Inkscape (http://www.inkscape.org/) -->

<svg
   xmlns:dc="http://purl.org/dc/elements/1.1/"
   xmlns:cc="http://creativecommons.org/ns#"
   xmlns:rdf="http://www.w3.org/1999/02/22-rdf-syntax-ns#"
   xmlns:svg="http://www.w3.org/2000/svg"
   xmlns="http://www.w3.org/2000/svg"
   xmlns:xlink="http://www.w3.org/1999/xlink"
   xmlns:sodipodi="http://sodipodi.sourceforge.net/DTD/sodipodi-0.dtd"
   xmlns:inkscape="http://www.inkscape.org/namespaces/inkscape"
   width="150"
   height="100"
   id="icon"
   sodipodi:version="0.32"
   inkscape:version="0.92.4 (5da689c313, 2019-01-14)"
   version="1.0"
   sodipodi:docname="tool-i-beam.svg"
   inkscape:output_extension="org.inkscape.output.svg.inkscape">
  <title
     id="doctitle">Icon: tool-i-beam</title>
  <defs
     id="defsz">
    <inkscape:perspective
       sodipodi:type="inkscape:persp3d"
       inkscape:vp_x="0 : 50 : 1"
       inkscape:vp_y="0 : 1000 : 0"
       inkscape:vp_z="150 : 50 : 1"
       inkscape:persp3d-origin="75 : 33.333333 : 1"
       id="perspective27" />
    <linearGradient
       inkscape:collect="always"
       id="linearGradient8773">
      <stop
         style="stop-color:black;stop-opacity:0.3137255"
         offset="0"
         id="stop8775" />
      <stop
         style="stop-color:black;stop-opacity:0;"
         offset="1"
         id="stop8777" />
    </linearGradient>
    <radialGradient
       inkscape:collect="always"
       xlink:href="#linearGradient8773"
       id="radialGradient14479"
       gradientUnits="userSpaceOnUse"
       gradientTransform="matrix(1,0,0,0.234973,0,18.5877)"
       cx="-57.850174"
       cy="24.296782"
       fx="-58.028885"
       fy="27.01318"
       r="8.087534" />
    <radialGradient
       inkscape:collect="always"
       xlink:href="#linearGradient8773"
       id="radialGradient8778"
       gradientUnits="userSpaceOnUse"
       gradientTransform="matrix(1,0,0,0.234973,0,18.5877)"
       cx="-57.850174"
       cy="24.296782"
       fx="-58.028885"
       fy="27.01318"
       r="8.087534" />
    <radialGradient
       inkscape:collect="always"
       xlink:href="#linearGradient8773"
       id="radialGradient8788"
       gradientUnits="userSpaceOnUse"
       gradientTransform="matrix(1,0,0,0.234973,0,18.5877)"
       cx="-57.850174"
       cy="24.296782"
       fx="-58.028885"
       fy="27.01318"
       r="8.087534" />
  </defs>
  <sodipodi:namedview
     id="base"
     pagecolor="#ffffff"
     bordercolor="#666666"
     borderopacity="1.0"
     gridtolerance="10000"
     guidetolerance="10"
     objecttolerance="10"
     inkscape:pageopacity="0.0"
     inkscape:pageshadow="2"
     inkscape:zoom="8"
     inkscape:cx="75"
     inkscape:cy="50"
     inkscape:document-units="px"
     inkscape:current-layer="artwork"
     showgrid="true"
     inkscape:snap-nodes="false"
     inkscape:snap-bbox="true"
     inkscape:snap-global="true"
     showguides="true"
     inkscape:guide-bbox="true"
     inkscape:window-width="1680"
     inkscape:window-height="977"
     inkscape:window-x="0"
     inkscape:window-y="24"
     inkscape:window-maximized="0">
    <inkscape:grid
       type="xygrid"
       id="grid13478"
       visible="true"
       enabled="true"
       spacingx="0.5"
       spacingy="0.5"
       empspacing="2"
       originx="0"
       originy="0" />
  </sodipodi:namedview>
  <metadata
     id="metadead">
    <rdf:RDF>
      <cc:Work
         rdf:about="">
        <dc:format>image/svg+xml</dc:format>
        <dc:type
           rdf:resource="http://purl.org/dc/dcmitype/StillImage" />
        <dc:title>Icon: tool-i-beam</dc:title>
        <cc:license
           rdf:resource="http://creativecommons.org/licenses/by-sa/4.0/" />
        <dc:creator>
          <cc:Agent>
            <dc:title>Joel Holdsworth</dc:title>
          </cc:Agent>
        </dc:creator>
        <dc:publisher>
          <cc:Agent>
            <dc:title>Lumiera.org</dc:title>
          </cc:Agent>
        </dc:publisher>
        <dc:description>prepared for Lumiera build :: Icon rendering</dc:description>
        <dc:date>2008</dc:date>
        <dc:identifier>icon:tool-i-beam</dc:identifier>
      </cc:Work>
      <cc:License
         rdf:about="http://creativecommons.org/licenses/by-sa/4.0/">
        <cc:permits
           rdf:resource="http://creativecommons.org/ns#Reproduction" />
        <cc:permits
           rdf:resource="http://creativecommons.org/ns#Distribution" />
        <cc:requires
           rdf:resource="http://creativecommons.org/ns#Notice" />
        <cc:requires
           rdf:resource="http://creativecommons.org/ns#Attribution" />
        <cc:permits
           rdf:resource="http://creativecommons.org/ns#DerivativeWorks" />
        <cc:requires
           rdf:resource="http://creativecommons.org/ns#ShareAlike" />
      </cc:License>
    </rdf:RDF>
  </metadata>
  <g
     inkscape:groupmode="layer"
     id="artwork"
     inkscape:label="artwork:tool-i-beam"
     style="display:inline">
    <path
       transform="matrix(0.989175,0,0,1.31555,164.72395,56.536408)"
       d="M -49.76264,24.296782 A 8.087534,1.9003495 0 1 1 -65.937708,24.296782 A 8.087534,1.9003495 0 1 1 -49.76264,24.296782 z"
       sodipodi:ry="1.9003495"
       sodipodi:rx="8.087534"
       sodipodi:cy="24.296782"
       sodipodi:cx="-57.850174"
       id="path8771"
       style="opacity:0.7;fill:url(#radialGradient14479);fill-opacity:1;stroke:none;stroke-width:1;stroke-linecap:round;stroke-linejoin:miter;stroke-miterlimit:4;stroke-dasharray:none;stroke-opacity:1;display:inline"
       sodipodi:type="arc" />
    <g
       inkscape:groupmode="layer"
       id="layerp"
       inkscape:label="plate#1"
       style="display:none"
       sodipodi:insensitive="true">
      <rect
         style="fill:#000000;fill-opacity:0.50196078;fill-rule:evenodd;stroke:none;stroke-width:3.7750001;stroke-linecap:round;stroke-linejoin:round;stroke-miterlimit:4;stroke-dashoffset:0;stroke-opacity:1;display:inline"
         id="rect72"
         width="24"
         height="24"
         x="96"
         y="68" />
      <rect
         y="69"
         x="97"
         height="22"
         width="22"
         id="rect14465"
         style="fill:#000000;fill-opacity:0.50196078;fill-rule:evenodd;stroke:none;stroke-width:3.7750001;stroke-linecap:round;stroke-linejoin:round;stroke-miterlimit:4;stroke-dashoffset:0;stroke-opacity:1;display:inline" />
      <rect
         style="fill:#000000;fill-opacity:0.50196078;fill-rule:evenodd;stroke:none;stroke-width:3.7750001;stroke-linecap:round;stroke-linejoin:round;stroke-miterlimit:4;stroke-dashoffset:0;stroke-opacity:1;display:inline"
         id="rect7973"
         width="16"
         height="16"
         x="124"
         y="76" />
      <rect
         y="60"
         x="60"
         height="32"
         width="32"
         id="rect8763"
         style="fill:#000000;fill-opacity:0.50196078;fill-rule:evenodd;stroke:none;stroke-width:3.7750001;stroke-linecap:round;stroke-linejoin:round;stroke-miterlimit:4;stroke-dashoffset:0;stroke-opacity:1;display:inline" />
      <rect
         y="44"
         x="8"
         height="48"
         width="48"
         id="rect8782"
         style="fill:#000000;fill-opacity:0.50196078;fill-rule:evenodd;stroke:none;stroke-width:3.7750001;stroke-linecap:round;stroke-linejoin:round;stroke-miterlimit:4;stroke-dashoffset:0;stroke-opacity:1;display:inline" />
    </g>
    <path
       style="fill:#eeeeec;fill-rule:evenodd;stroke:#555753;stroke-width:1px;stroke-linecap:round;stroke-linejoin:round;stroke-opacity:1"
       d="M 104.5,71.505242 C 104,71.505242 103.5,72.005242 103.5,72.5 C 103.5,73.005242 104,73.505242 104.5,73.505242 L 105.5,73.505242 C 106,73.505242 106.5,74.005242 106.5,74.505242 L 106.5,85.5 C 106.5,86 106,86.5 105.5,86.5 L 104.5,86.5 C 104,86.5 103.5,87 103.5,87.5 C 103.5,88.008876 104,88.5 104.5,88.5 L 106.5,88.5 C 107.02152,88.521523 107.5,88 107.5,87.5 C 107.5,88 108,88.5 108.5,88.5 L 110.5,88.490485 C 110.99999,88.488106 111.5,87.990485 111.5,87.5 C 111.5,86.990485 110.99998,86.485728 110.5,86.490485 L 109.5,86.5 C 109,86.5 108.5,86 108.5,85.5 L 108.5,74.505242 C 108.5,74.005242 109,73.505242 109.5,73.505242 L 110.5,73.5 C 110.99999,73.497379 111.5,73 111.5,72.515625 C 111.5,72 111,71.49869 110.5,71.5 L 108.5,71.505242 C 108,71.505242 107.5,72.005242 107.5,72.505242 C 107.5,72.005242 107,71.505242 106.5,71.505242 L 104.5,71.505242 z"
       id="path7969"
       sodipodi:nodetypes="cssccccssscccsssccccssscccs" />
    <path
       sodipodi:nodetypes="cssccccssscccsssccccssscccs"
       id="path7977"
       d="M 129.5,77.5 C 128.99037,77.5 128.5,78 128.5,78.5 C 128.5,79 129,79.5 129.5,79.5 L 129.5,79.5 C 130,79.5 130.5,80 130.5,80.5 L 130.5,87.5 C 130.5,88 130,88.5 129.5,88.5 L 129.5,88.5 C 129,88.5 128.5,89 128.5,89.5 C 128.5,90 129,90.5 129.5,90.5 L 130.5,90.5 C 131,90.5 131.5,90 131.5,89.5 C 131.5,90 132,90.5 132.5,90.5 L 133.5,90.5 C 134,90.5 134.5,90 134.5,89.5 C 134.5,89 134,88.5 133.5,88.5 L 133.5,88.5 C 133,88.5 132.5,88 132.5,87.5 L 132.5,80.5 C 132.5,80 133,79.5 133.5,79.5 L 133.5,79.5 C 134,79.5 134.5,79 134.5,78.5 C 134.5,78 134,77.5 133.5,77.5 L 132.5,77.5 C 132,77.5 131.5,78 131.5,78.5 C 131.5,78 131,77.5 130.5,77.5 L 129.5,77.5 z"
       style="fill:#eeeeec;fill-rule:evenodd;stroke:#555753;stroke-width:1;stroke-linecap:round;stroke-linejoin:round;stroke-miterlimit:4;stroke-dasharray:none;stroke-opacity:1" />
    <path
       sodipodi:type="arc"
       style="opacity:0.7;fill:url(#radialGradient8778);fill-opacity:1;stroke:none;stroke-width:1;stroke-linecap:round;stroke-linejoin:miter;stroke-miterlimit:4;stroke-dasharray:none;stroke-opacity:1;display:inline"
       id="path8759"
       sodipodi:cx="-57.850174"
       sodipodi:cy="24.296782"
       sodipodi:rx="8.087534"
       sodipodi:ry="1.9003495"
       d="M -49.76264,24.296782 A 8.087534,1.9003495 0 1 1 -65.937708,24.296782 A 8.087534,1.9003495 0 1 1 -49.76264,24.296782 z"
       transform="matrix(1.3189,0,0,1.7540667,152.29859,44.715211)" />
    <path
       sodipodi:nodetypes="cssccccssscccsssccccssscccs"
       id="path8765"
       d="M 71.5,64.5 C 71,64.498835 70,65 70,66 C 70,67 71,67.5 71.5,67.5 L 73.5,67.5 C 74,67.5 74.5,68 74.5,68.506989 L 74.5,83.166666 C 74.5,83.833333 73.83333,84.5 73.16667,84.5 L 71.5,84.5 C 71,84.5 70,85 70,86 C 70,87 71,87.5 71.5,87.5 L 74.5,87.5 C 75.5,87.5 76,86.5 76,86 C 76,86.5 76.5,87.5 77.5,87.5 L 80.5,87.5 C 81,87.5 82,87 82,86 C 82,85 81,84.5 80.5,84.5 L 78.5,84.5 C 77.83333,84.5 77.5,83.826344 77.5,83.159677 L 77.5,68.5 C 77.5,68 78,67.5 78.5,67.5 L 80.5,67.5 C 81,67.5 82,67 82,66 C 82,65 81,64.5 80.5,64.5 L 77.5,64.5 C 76.5,64.5 76,65.5 76,66 C 76,65.5 75.5,64.5 74.5,64.506989 L 71.5,64.5 z"
       style="fill:#eeeeec;fill-rule:evenodd;stroke:#555753;stroke-width:1;stroke-linecap:round;stroke-linejoin:round;stroke-miterlimit:4;stroke-dasharray:none;stroke-opacity:1" />
    <path
       sodipodi:type="arc"
       style="opacity:0.7;fill:url(#radialGradient8788);fill-opacity:1;stroke:none;stroke-width:1;stroke-linecap:round;stroke-linejoin:miter;stroke-miterlimit:4;stroke-dasharray:none;stroke-opacity:1;display:inline"
       id="path8780"
       sodipodi:cx="-57.850174"
       sodipodi:cy="24.296782"
       sodipodi:rx="8.087534"
       sodipodi:ry="1.9003495"
       d="M -49.76264,24.296782 A 8.087534,1.9003495 0 1 1 -65.937708,24.296782 A 8.087534,1.9003495 0 1 1 -49.76264,24.296782 z"
       transform="matrix(1.97835,0,0,2.6311,145.94789,21.072816)" />
    <path
       sodipodi:nodetypes="cssccccssscccsssccccssscccs"
       id="path8786"
       d="M 25.5,50.509196 C 24.5,50.509196 23.5,51.509196 23.5,52.498712 C 23.5,53.509196 24.5,54.509196 25.5,54.509196 L 27.5,54.509196 C 28.5,54.509196 29.5,55.509196 29.5,56.509196 L 29.5,78.498712 C 29.5,79.498712 28.5,80.498712 27.5,80.498712 L 25.5,80.498712 C 24.5,80.498712 23.5,81.498712 23.5,82.498712 C 23.5,83.516464 24.5,84.498712 25.5,84.498712 L 29.5,84.498712 C 30.54304,84.541758 31.5,83.498712 31.5,82.498712 C 31.5,83.498712 32.5,84.498712 33.5,84.498712 L 37.5,84.479682 C 38.49998,84.474924 39.5,83.479682 39.5,82.498712 C 39.5,81.479682 38.49996,80.470168 37.5,80.479682 L 35.5,80.498712 C 34.5,80.498712 33.5,79.498712 33.5,78.498712 L 33.5,56.509196 C 33.5,55.509196 34.5,54.509196 35.5,54.509196 L 37.5,54.498712 C 38.49998,54.49347 39.5,53.498712 39.5,52.529962 C 39.5,51.498712 38.5,50.496092 37.5,50.498712 L 33.5,50.509196 C 32.5,50.509196 31.5,51.509196 31.5,52.509196 C 31.5,51.509196 30.5,50.509196 29.5,50.509196 L 25.5,50.509196 z"
       style="fill:#eeeeec;fill-rule:evenodd;stroke:#555753;stroke-width:1;stroke-linecap:round;stroke-linejoin:round;stroke-miterlimit:4;stroke-dasharray:none;stroke-opacity:1" />
  </g>
</svg>

<?xml version="1.0" encoding="UTF-8" standalone="no"?>
<!-- Created with Inkscape (http://www.inkscape.org/) -->

<svg
   xmlns:dc="http://purl.org/dc/elements/1.1/"
   xmlns:cc="http://creativecommons.org/ns#"
   xmlns:rdf="http://www.w3.org/1999/02/22-rdf-syntax-ns#"
   xmlns:svg="http://www.w3.org/2000/svg"
   xmlns="http://www.w3.org/2000/svg"
   xmlns:xlink="http://www.w3.org/1999/xlink"
   xmlns:sodipodi="http://sodipodi.sourceforge.net/DTD/sodipodi-0.dtd"
   xmlns:inkscape="http://www.inkscape.org/namespaces/inkscape"
   width="150"
   height="100"
   id="icon"
   sodipodi:version="0.32"
   inkscape:version="0.92.4 (5da689c313, 2019-01-14)"
   version="1.0"
   sodipodi:docname="tool-i-beam.svg"
   inkscape:output_extension="org.inkscape.output.svg.inkscape">
  <title
     id="doctitle">Icon: tool-i-beam</title>
  <defs
     id="defsz">
    <linearGradient
       inkscape:collect="always"
       id="linearGradient8773">
      <stop
         style="stop-color:black;stop-opacity:0.3137255"
         offset="0"
         id="stop8775" />
      <stop
         style="stop-color:black;stop-opacity:0;"
         offset="1"
         id="stop8777" />
    </linearGradient>
    <radialGradient
       inkscape:collect="always"
       xlink:href="#linearGradient8773"
       id="radialGradient14479"
       gradientUnits="userSpaceOnUse"
       gradientTransform="matrix(1,0,0,0.234973,0,18.5877)"
       cx="-57.850174"
       cy="24.296782"
       fx="-58.028885"
       fy="27.01318"
       r="8.087534" />
    <radialGradient
       inkscape:collect="always"
       xlink:href="#linearGradient8773"
       id="radialGradient8778"
       gradientUnits="userSpaceOnUse"
       gradientTransform="matrix(1,0,0,0.234973,0,18.5877)"
       cx="-57.850174"
       cy="24.296782"
       fx="-58.028885"
       fy="27.01318"
       r="8.087534" />
    <radialGradient
       inkscape:collect="always"
       xlink:href="#linearGradient8773"
       id="radialGradient8788"
       gradientUnits="userSpaceOnUse"
       gradientTransform="matrix(1,0,0,0.234973,0,18.5877)"
       cx="-57.850174"
       cy="24.296782"
       fx="-58.028885"
       fy="27.01318"
       r="8.087534" />
  </defs>
  <sodipodi:namedview
     id="base"
     pagecolor="#ffffff"
     bordercolor="#666666"
     borderopacity="1.0"
     gridtolerance="10000"
     guidetolerance="10"
     objecttolerance="10"
     inkscape:pageopacity="0.0"
     inkscape:pageshadow="2"
     inkscape:zoom="8"
     inkscape:cx="75"
     inkscape:cy="50"
     inkscape:document-units="px"
     inkscape:current-layer="artwork"
     showgrid="false"
     inkscape:snap-nodes="false"
     inkscape:snap-bbox="true"
     inkscape:snap-global="true"
     showguides="true"
     inkscape:guide-bbox="true"
     inkscape:window-width="1680"
     inkscape:window-height="977"
     inkscape:window-x="0"
     inkscape:window-y="24"
     inkscape:window-maximized="0">
    <inkscape:grid
       type="xygrid"
       id="grid13478"
       visible="true"
       enabled="true"
       spacingx="0.5"
       spacingy="0.5"
       empspacing="2"
       originx="0"
       originy="0" />
  </sodipodi:namedview>
  <metadata
     id="metadead">
    <rdf:RDF>
      <cc:Work
         rdf:about="">
        <dc:format>image/svg+xml</dc:format>
        <dc:type
           rdf:resource="http://purl.org/dc/dcmitype/StillImage" />
        <dc:title>Icon: tool-i-beam</dc:title>
        <cc:license
           rdf:resource="http://creativecommons.org/licenses/by-sa/4.0/" />
        <dc:creator>
          <cc:Agent>
            <dc:title>Joel Holdsworth</dc:title>
          </cc:Agent>
        </dc:creator>
        <dc:publisher>
          <cc:Agent>
            <dc:title>Lumiera.org</dc:title>
          </cc:Agent>
        </dc:publisher>
        <dc:description>prepared for Lumiera build :: Icon rendering</dc:description>
        <dc:date>2008</dc:date>
        <dc:identifier>icon:tool-i-beam</dc:identifier>
      </cc:Work>
      <cc:License
         rdf:about="http://creativecommons.org/licenses/by-sa/4.0/">
        <cc:permits
           rdf:resource="http://creativecommons.org/ns#Reproduction" />
        <cc:permits
           rdf:resource="http://creativecommons.org/ns#Distribution" />
        <cc:requires
           rdf:resource="http://creativecommons.org/ns#Notice" />
        <cc:requires
           rdf:resource="http://creativecommons.org/ns#Attribution" />
        <cc:permits
           rdf:resource="http://creativecommons.org/ns#DerivativeWorks" />
        <cc:requires
           rdf:resource="http://creativecommons.org/ns#ShareAlike" />
      </cc:License>
    </rdf:RDF>
  </metadata>
  <g
     inkscape:groupmode="layer"
     id="artwork"
     inkscape:label="artwork:tool-i-beam"
     style="display:inline">
    <g
       inkscape:groupmode="layer"
       id="layerp"
       inkscape:label="plate#1"
       style="display:none"
       sodipodi:insensitive="true">
      <rect
         id="bbox48"
         x="8"
         y="44"
         width="48"
         height="48"
         style="fill:black;fill-opacity:0.5;stroke:#5a8fb2;stroke-opacity:1;stroke-width:0.1"
         sodipodi:insensitive="true" />
      <rect
         id="bbox32"
         x="60"
         y="60"
         width="32"
         height="32"
         style="fill:black;fill-opacity:0.5;stroke:#5a8fb2;stroke-opacity:1;stroke-width:0.1"
         sodipodi:insensitive="true" />
      <rect
         id="bbox24"
         x="96"
         y="68"
         width="24"
         height="24"
         style="fill:black;fill-opacity:0.5;stroke:#5a8fb2;stroke-opacity:1;stroke-width:0.1"
         sodipodi:insensitive="true" />
      <rect
         id="bbox22"
         x="97"
         y="69"
         width="22"
         height="22"
         style="fill:black;fill-opacity:0.5;stroke:#5a8fb2;stroke-opacity:1;stroke-width:0.1"
         sodipodi:insensitive="true" />
      <rect
         id="bbox16"
         x="124"
         y="76"
         width="16"
         height="16"
         style="fill:black;fill-opacity:0.5;stroke:#5a8fb2;stroke-opacity:1;stroke-width:0.1"
         sodipodi:insensitive="true" />
    </g>
    <g
       id="gicon48">
      <ellipse
         id="shadow48"
         ry="1.9003495"
         rx="8.087534"
         cy="24.296782"
         cx="-57.850174"
         style="display:inline;opacity:0.7;fill:url(#radialGradient8788);fill-opacity:1;stroke:none;stroke-width:1;stroke-linecap:round;stroke-linejoin:miter;stroke-miterlimit:4;stroke-dasharray:none;stroke-opacity:1"
         transform="matrix(1.97835,0,0,2.6311,145.94789,21.072816)" />
      <path
         inkscape:connector-curvature="0"
         style="fill:#eeeeec;fill-rule:evenodd;stroke:#555753;stroke-width:1;stroke-linecap:round;stroke-linejoin:round;stroke-miterlimit:4;stroke-dasharray:none;stroke-opacity:1"
         d="m 25.5,50.509196 c -1,0 -2,1 -2,1.989516 0,1.010484 1,2.010484 2,2.010484 h 2 c 1,0 2,1 2,2 v 21.989516 c 0,1 -1,2 -2,2 h -2 c -1,0 -2,1 -2,2 0,1.017752 1,2 2,2 h 4 c 1.04304,0.04305 2,-1 2,-2 0,1 1,2 2,2 l 4,-0.01903 c 0.99998,-0.0048 2,-1 2,-1.98097 0,-1.01903 -1.00004,-2.028544 -2,-2.01903 l -2,0.01903 c -1,0 -2,-1 -2,-2 V 56.509196 c 0,-1 1,-2 2,-2 l 2,-0.01048 c 0.99998,-0.0052 2,-1 2,-1.96875 0,-1.03125 -1,-2.03387 -2,-2.03125 l -4,0.01048 c -1,0 -2,1 -2,2 0,-1 -1,-2 -2,-2 z"
         id="path8786"
         sodipodi:nodetypes="cssccccssscccsssccccssscccs" />
    </g>
    <g
       id="gicon32">
      <ellipse
         id="shadow32"
         ry="1.9003495"
         rx="8.087534"
         cy="24.296782"
         cx="-57.850174"
         transform="matrix(1.3189,0,0,1.7540667,152.29859,44.715211)"
         style="display:inline;opacity:0.7;fill:url(#radialGradient8778);fill-opacity:1;stroke:none;stroke-width:1;stroke-linecap:round;stroke-linejoin:miter;stroke-miterlimit:4;stroke-dasharray:none;stroke-opacity:1" />
      <path
         id="path8765"
         style="fill:#eeeeec;fill-rule:evenodd;stroke:#555753;stroke-width:1;stroke-linecap:round;stroke-linejoin:round;stroke-miterlimit:4;stroke-dasharray:none;stroke-opacity:1"
         d="M 71.5,64.5 C 71,64.498835 70,65 70,66 c 0,1 1,1.5 1.5,1.5 h 2 c 0.5,0 1,0.5 1,1.006989 V 83.166666 C 74.5,83.833333 73.83333,84.5 73.16667,84.5 H 71.5 C 71,84.5 70,85 70,86 c 0,1 1,1.5 1.5,1.5 h 3 c 1,0 1.5,-1 1.5,-1.5 0,0.5 0.5,1.5 1.5,1.5 h 3 C 81,87.5 82,87 82,86 82,85 81,84.5 80.5,84.5 h -2 c -0.66667,0 -1,-0.673656 -1,-1.340323 V 68.5 c 0,-0.5 0.5,-1 1,-1 h 2 C 81,67.5 82,67 82,66 82,65 81,64.5 80.5,64.5 h -3 c -1,0 -1.5,1 -1.5,1.5 0,-0.5 -0.5,-1.5 -1.5,-1.493011 z"
         sodipodi:nodetypes="cssccccssscccsssccccssscccs"
         inkscape:connector-curvature="0" />
    </g>
    <g
       id="gicon24">
      <ellipse
         id="shadow24"
         ry="1.9003495"
         rx="8.087534"
         cy="24.296782"
         cx="-57.850174"
         style="display:inline;opacity:0.7;fill:url(#radialGradient14479);fill-opacity:1;stroke:none;stroke-width:1;stroke-linecap:round;stroke-linejoin:miter;stroke-miterlimit:4;stroke-dasharray:none;stroke-opacity:1"
         transform="matrix(0.989175,0,0,1.31555,164.72395,56.536408)" />
      <path
         id="path7969"
         d="m 104.5,71.505242 c -0.5,0 -1,0.5 -1,0.994758 0,0.505242 0.5,1.005242 1,1.005242 h 1 c 0.5,0 1,0.5 1,1 V 85.5 c 0,0.5 -0.5,1 -1,1 h -1 c -0.5,0 -1,0.5 -1,1 0,0.508876 0.5,1 1,1 h 2 c 0.52152,0.02152 1,-0.5 1,-1 0,0.5 0.5,1 1,1 l 2,-0.0095 c 0.49999,-0.0024 1,-0.5 1,-0.990485 0,-0.509515 -0.50002,-1.014272 -1,-1.009515 l -1,0.0095 c -0.5,0 -1,-0.5 -1,-1 V 74.505242 c 0,-0.5 0.5,-1 1,-1 l 1,-0.0052 c 0.49999,-0.0026 1,-0.5 1,-0.984375 C 111.5,72 111,71.49869 110.5,71.5 l -2,0.0052 c -0.5,0 -1,0.5 -1,1 0,-0.5 -0.5,-1 -1,-1 z"
         style="fill:#eeeeec;fill-rule:evenodd;stroke:#555753;stroke-width:1px;stroke-linecap:round;stroke-linejoin:round;stroke-opacity:1"
         sodipodi:nodetypes="cssccccssscccsssccccssscccs"
         inkscape:connector-curvature="0" />
    </g>
    <g
       id="gicon16">
      <path
         style="fill:#eeeeec;fill-rule:evenodd;stroke:#555753;stroke-width:1;stroke-linecap:round;stroke-linejoin:round;stroke-miterlimit:4;stroke-dasharray:none;stroke-opacity:1"
         d="m 129.5,77.5 c -0.50963,0 -1,0.5 -1,1 0,0.5 0.5,1 1,1 v 0 c 0.5,0 1,0.5 1,1 v 7 c 0,0.5 -0.5,1 -1,1 v 0 c -0.5,0 -1,0.5 -1,1 0,0.5 0.5,1 1,1 h 1 c 0.5,0 1,-0.5 1,-1 0,0.5 0.5,1 1,1 h 1 c 0.5,0 1,-0.5 1,-1 0,-0.5 -0.5,-1 -1,-1 v 0 c -0.5,0 -1,-0.5 -1,-1 v -7 c 0,-0.5 0.5,-1 1,-1 v 0 c 0.5,0 1,-0.5 1,-1 0,-0.5 -0.5,-1 -1,-1 h -1 c -0.5,0 -1,0.5 -1,1 0,-0.5 -0.5,-1 -1,-1 z"
         id="path7977"
         sodipodi:nodetypes="cssccccssscccsssccccssscccs"
         inkscape:connector-curvature="0" />
    </g>
  </g>
</svg>
